**kern	**kern
*part1	*part1
*staff2	*staff1
*I"Piano	*
*clefF4	*clefG2
*k[b-e-]	*k[b-e-]
=1	=1
4BB- 4B-	2bb-
4F 4B- 4d	.
4F 4B- 4d	4ccc
=	=
4BB- 4B-	2.ddd
4F 4B- 4d	.
4F 4B- 4d	.
=	=
4BB- 4B-	2dd
4F 4B- 4d	.
4F 4B- 4d	4a
=	=
4GG 4G	2.b-
4G 4B- 4d	.
4G 4B- 4d	.
=	=
4CC 4C	2een
4G 4B- 4c 4en	.
4G 4B- 4c 4e	4ee
=	=
4CC 4C	2bb-
4G 4B- 4c 4en	.
4G 4B- 4c 4e	4bb-
=	=
4FF 4F	8aaL
.	8a
4A 4c 4f	8cc
.	8ff
4A 4c 4f	8aa
.	8cccJ
=	=
4FF 4F	2.fff
4F 4A 4e-X	.
4F 4A 4e-	.
=	=
*-	*-
!!!system-decoration: {(s1,s2)}
